X:77
T: Der erste sprach seid wohlgemuth, S. 46
N: L0037
O: Luxemburg
S: Die Luxemburger Volkslieder lterer Zeit, Luxemburg 1904 posth.]
R: ??, Kriegslied, geschichtliches Lied]
M: 4/4
L: 1/8
K: A
E2 | A2G2A2B2 | c2cAB2
c2 | d4c2e2 | B4z2
E2 | A2G2AAB2 | c2A2B2
c2 | d4c2e2 | B4z2
c2 | A2c2e2c2 | B2c2d2
B2 | c4B4 | A2c2e2
d2 | c4B4 | A4z2

@@@ Tune index: 8131
